src/shared/assets/character/character-list/character-list-plus.svg

<svg width="20" height="20" viewBox="0 0 20 20" fill="none" xmlns="http://www.w3.org/2000/svg">
<path d="M10 0C11.6569 1.42343e-07 13 1.34315 13 3V7H17C18.6569 7 20 8.34315 20 10C20 11.6569 18.6569 13 17 13H13V17C13 18.6569 11.6569 20 10 20C8.34315 20 7 18.6569 7 17V13H3C1.34315 13 0 11.6569 0 10C0 8.34315 1.34315 7 3 7H7V3C7 1.34315 8.34315 7.24234e-08 10 0Z" fill="black"/>
</svg>

<svg xmlns="http://www.w3.org/2000/svg" fill="none" viewBox="0 0 20 20"><path fill="#000" d="M10 0a3 3 0 0 1 3 3v4h4a3 3 0 1 1 0 6h-4v4a3 3 0 1 1-6 0v-4H3a3 3 0 1 1 0-6h4V3a3 3 0 0 1 3-3"/></svg>
